src/actions/22/transform-shear-right.svg

<svg xmlns="http://www.w3.org/2000/svg" viewBox="0 0 22 22">
    <path d="M6 3v5h1V4h11v8h-2v1h3V3H6zM4 9l-.9 9-.1 1h11l.9-9 .1-1H4zm.9 1h9l-.8 8h-9l.8-8z" style="fill:currentColor;fill-opacity:1;stroke:none;color:#050505;opacity:.7"/>
</svg>

<svg xmlns="http://www.w3.org/2000/svg" viewBox="0 0 22 22">
  <defs id="defs3051">
    <style type="text/css" id="current-color-scheme">
      .ColorScheme-Text {
        color:#363636;
      }
      </style>
  </defs>
 <path 
    style="fill:currentColor;fill-opacity:1;stroke:none" 
    d="M 6 3 L 6 8 L 7 8 L 7 4 L 18 4 L 18 12 L 16 12 L 16 13 L 18 13 L 19 13 L 19 12 L 19 3 L 18 3 L 7 3 L 6 3 z M 4 9 L 3.0996094 18 L 3 19 L 4 19 L 13 19 L 14 19 L 14.900391 10 L 15 9 L 14 9 L 5 9 L 4 9 z M 4.9003906 10 L 13.900391 10 L 13.099609 18 L 4.0996094 18 L 4.9003906 10 z "
	class="ColorScheme-Text"
    />  
</svg>
